X: 136
T: Missa Sub tuum presidium / Agnus Dei
N: Derived from Rue1029e-Missa_Sub_tuum_presidium-Agnus.krn
C: Pierre de la Rue
%%abc-version 2.0
%%abcx-abcm2ps-target-version 5.9.1 (29 Sep 2008)
%%abc-creator hum2abc beta
%%abcx-conversion-date 2019/02/17 08:01:15
%%abc-edited-by Jesse Rodin
%%abc-edited-by Will Watson 03/09/2011
%%abcx-initial-encoding-date 2012/01/22/
%%humdrum-veritas 4263890862
%%humdrum-veritas-data 318312358
%%linebreak <none>
%%barnumbers 0
L: 1/4
M: 3/1
Q: 1/2=120
%%staves [1 2 3 4]
V: 1 clef=treble
V: 2 clef=treble-8
V: 3 clef=treble-8
V: 4 clef=bass
K: C
[V:1] E4G2A2B2E2 | 
[V:2] e6c2d2e2- | 
[V:3] z12 | 
[V:4] z12 | 
[V:1] z2E4C2D2E2 | 
[V:2] e2E2G2A2B2E2 | 
[V:3] z12 | 
[V:4] z12 | 
[V:1] A,2E2G2A2B2E2 | 
[V:2] c3AB2c2d2e2 | 
[V:3] z12 | 
[V:4] z12 | 
[V:1] c3AB2c2d4 | 
[V:2] cAc2BAA4G2 | 
[V:3] z12 | 
[V:4] z12 | 
[V:1] cAcBBAA4^G2 | 
[V:2] A2e4dcB4 | 
[V:3] z12 | 
[V:4] A,,4C,2D,2E,4 | 
[V:1] A4z2c4B2 | 
[V:2] A2c3BA2G4 | 
[V:3] E12- | 
[V:4] A,,8z4 | 
[V:1] G2A2E2G2A2c2- | 
[V:2] z2e4d2c2e2- | 
[V:3] E12 | 
[V:4] z2C,4B,,2A,,4 | 
[V:1] c2B3AGFE4 | 
[V:2] e2d4B2c4 | 
[V:3] G8A4 | 
[V:4] G,,8z4 | 
[V:1] D4z2D2E2D2 | 
[V:2] z2d3cBAG4- | 
[V:3] B8z4 | 
[V:4] G,,3A,,B,,2G,,2C,2B,,A,, | 
[V:1] G2FED4z2D2 | 
[V:2] G4z2G2F2G2- | 
[V:3] B8c2B2 | 
[V:4] G,,4z2G,,2A,,2G,,2 | 
[V:1] E2D2G2FED2EF | 
[V:2] GABcd8 | 
[V:3] c2d2B6G2 | 
[V:4] C,2B,,A,,G,,8 | 
[V:1] GABcd2B4A2 | 
[V:2] d4d8 | 
[V:3] G8F4 | 
[V:4] z2G,,3A,,B,,C,D,4 | 
[V:1] B8z4 | 
[V:2] z2d3Bd2c2A2 | 
[V:3] G8z4 | 
[V:4] G,,4z2G,2A,2F,2 | 
[V:1] z2d3Bd2c2A2 | 
[V:2] B3cd2B2c3d | 
[V:3] z12 | 
[V:4] G,4z2G,2A,2F,2 | 
[V:1] B2G3EG2F2D2 | 
[V:2] B4z4z4 | 
[V:3] E3FG2E2F3G | 
[V:4] G,4z2C,2D,2B,,2 | 
[V:1] E2zEF2D2E2EF- | 
[V:2] z12 | 
[V:3] E2G2F4E2A2- | 
[V:4] C,2zC,D,2B,,2C,3A,, | 
[V:1] FE2DE2E3DCB, | 
[V:2] z4z4e4 | 
[V:3] AGF2E4z2E2 | 
[V:4] A,,2zB,,C,2A,,2C,3D, | 
[V:1] B,4z4z4 | 
[V:2] e8B2e2 | 
[V:3] G3AB2E2z2B2 | 
[V:4] E,12 | 
[V:1] z4z4z2A2 | 
[V:2] d2GABcd2e2f2 | 
[V:3] B2d4B2c2BA | 
[V:4] z12 | 
[V:1] B2d4B2c2BA | 
[V:2] g3fd2e4dc | 
[V:3] G8z4 | 
[V:4] z12 | 
[V:1] G4z4z2c2- | 
[V:2] B2E2z2e2d2c2 | 
[V:3] z2c3BBAd2e2 | 
[V:4] E,4D,2C,2B,,2C,2- | 
[V:1] cBBAB2d3cBA | 
[V:2] e4d4f4 | 
[V:3] c4B4A2d2- | 
[V:4] C,D,E,F,G,4D,4 | 
[V:1] GABcB2A4G2 | 
[V:2] e8d2d2 | 
[V:3] dcBAGABcB4 | 
[V:4] E,8z2E,2 | 
[V:1] A2c3BBAc3B | 
[V:2] c2A2z2f3ecd | 
[V:3] A4z2d2c2A2 | 
[V:4] F,3E,E,D,F,4F,2 | 
[V:1] G2dcBAA4^G2 | 
[V:2] e2f2d2f2e2E2 | 
[V:3] B2BABcd2B4 | 
[V:4] E,2D,2G,F,E,D,E,4 | 
[V:1] A12 ||  
[V:2] F4E8 ||  
[V:3] A12 ||  
[V:4] A,,12 ||  
[V:1]  [K:C] [K:clef=treble][M:2/1]z8 | 
[V:2]  [K:C] [K:clef=treble-8][M:2/1]z8 | 
[V:3]  [K:C] [K:clef=treble-8][M:2/1]B8 | 
[V:4]  [K:C] [K:clef=bass][M:2/1]E,6D,2 | 
[V:1] z8 | 
[V:2] e2e4d2 | 
[V:3] B8 | 
[V:4] E,4B,,4 | 
[V:1] G2G4F2 | 
[V:2] e4B4 | 
[V:3] B8 | 
[V:4] E,2E,4D,2 | 
[V:1] G4D2G2 | 
[V:2] z2G2B3c | 
[V:3] B8 | 
[V:4] E,4z2E,2 | 
[V:1] D2G3ABc | 
[V:2] d2G4FE | 
[V:3] z8 | 
[V:4] B,,2E,4D,C, | 
[V:1] d2B2c4 | 
[V:2] D2G4^F2 | 
[V:3] z8 | 
[V:4] B,,2G,,2A,,4 | 
[V:1] B8 | 
[V:2] G8 | 
[V:3] B8 | 
[V:4] G,,2B,,2B,,2B,,2 | 
[V:1] z2B2B2B2 | 
[V:2] z8 | 
[V:3] B4B4 | 
[V:4] B,,2D,3C,B,,A,, | 
[V:1] B2d3cBA | 
[V:2] d8 | 
[V:3] B4B4 | 
[V:4] G,,8 | 
[V:1] G4A4 | 
[V:2] e4e4 | 
[V:3] c4c4 | 
[V:4] z8 | 
[V:1] B8- | 
[V:2] d4d2B2- | 
[V:3] B8- | 
[V:4] G,,4B,,4- | 
[V:1] B8 | 
[V:2] B2e4d2 | 
[V:3] B8 | 
[V:4] B,,4B,,4 | 
[V:1] z2G3AB2 | 
[V:2] e4z2d2 | 
[V:3] z8 | 
[V:4] C,4B,,4 | 
[V:1] E2G3AB2 | 
[V:2] e4z2d2 | 
[V:3] z8 | 
[V:4] C,4B,,4 | 
[V:1] c8 | 
[V:2] e4c4 | 
[V:3] A8 | 
[V:4] A,,4C,4 | 
[V:1] B2d4B2 | 
[V:2] d8- | 
[V:3] B8- | 
[V:4] G,,8- | 
[V:1] G2B4AG | 
[V:2] d8 | 
[V:3] B8 | 
[V:4] G,,8 | 
[V:1] A2G4c2- | 
[V:2] e8 | 
[V:3] c8- | 
[V:4] C,8 | 
[V:1] c2B4A2 | 
[V:2] g4f4 | 
[V:3] c8 | 
[V:4] E,4F,4 | 
[V:1] B8 | 
[V:2] d4e4 | 
[V:3] B8 | 
[V:4] G,4E,4 | 
[V:1] z8 | 
[V:2] d3cdefg | 
[V:3] z4A4- | 
[V:4] G,4D,2A,2- | 
[V:1] z8 | 
[V:2] f2e4d2 | 
[V:3] A4A4 | 
[V:4] A,E,G,2F,4 | 
[V:1] G4G4 | 
[V:2] e8- | 
[V:3] B8- | 
[V:4] E,8- | 
[V:1] G3FGABc | 
[V:2] e8- | 
[V:3] B8 | 
[V:4] E,8- | 
[V:1] B2A4^G2 | 
[V:2] e8 | 
[V:3] B4B4 | 
[V:4] E,8 | 
[V:1] A8 | 
[V:2] z8 | 
[V:3] A8 | 
[V:4] z4A,,4 | 
[V:1] z8 | 
[V:2] z8 | 
[V:3] A3GABcd | 
[V:4] A,,3B,,C,D,E,2- | 
[V:1] z8 | 
[V:2] z4e4 | 
[V:3] c2B4A2 | 
[V:4] E,B,,D,2C,4 | 
[V:1] z2B2B2B2 | 
[V:2] d4d4 | 
[V:3] B8- | 
[V:4] B,,8 | 
[V:1] d4d2B2- | 
[V:2] d8 | 
[V:3] B8- | 
[V:4] z2G,,2G,,2G,,2 | 
[V:1] BAG4F2 | 
[V:2] d8 | 
[V:3] B8 | 
[V:4] B,,3C,D,4 | 
[V:1] G2FED4 | 
[V:2] z2d2d2G2 | 
[V:3] z4B4 | 
[V:4] z4z2G,,2 | 
[V:1] z8 | 
[V:2] d4d4 | 
[V:3] B4B4 | 
[V:4] G,,2G,,2B,,3C, | 
[V:1] z2D2D2D2 | 
[V:2] f6ed | 
[V:3] A8- | 
[V:4] D,8 | 
[V:1] F3GABc2- | 
[V:2] c3defe2- | 
[V:3] A8 | 
[V:4] z2A,,2A,,2A,,2 | 
[V:1] cBA4^G2 | 
[V:2] edc2B4 | 
[V:3] z8 | 
[V:4] C,3D,E,4 | 
[V:1] A3GE2F2- | 
[V:2] A8 | 
[V:3] c4c2c2 | 
[V:4] A,,8 | 
[V:1] F2E3B,D2 | 
[V:2] z8 | 
[V:3] d2c2d2B2- | 
[V:4] z8 | 
[V:1] C4B,4 | 
[V:2] z4z2d2 | 
[V:3] B2A2B4 | 
[V:4] z4z2B,,2- | 
[V:1] z4z2B2- | 
[V:2] e2c2d2B2 | 
[V:3] c4B4 | 
[V:4] B,,2A,,2B,,4 | 
[V:1] B2A2B2G2 | 
[V:2] c4B4 | 
[V:3] z4z2B2 | 
[V:4] z4z2E,2- | 
[V:1] A2F2G2E2 | 
[V:2] z8 | 
[V:3] c2d2B2c2- | 
[V:4] E,2D,2E,2C,2 | 
[V:1] F2D2E2DC | 
[V:2] z8 | 
[V:3] cBB3GA2 | 
[V:4] D,2B,,2C,2A,,2 | 
[V:1] B,2E4D2 | 
[V:2] z2B4A2 | 
[V:3] B4z4 | 
[V:4] E,4F,4 | 
[V:1] E4z2E2 | 
[V:2] B3AG3F | 
[V:3] z2B2B2B2 | 
[V:4] E,8 | 
[V:1] E2DCB,2E2 | 
[V:2] E4G3A | 
[V:3] B8 | 
[V:4] z2E,2E,2E,2 | 
[V:1] D2B,2C2D2 | 
[V:2] B4z4 | 
[V:3] z2G2A2B2 | 
[V:4] B,,4z4 | 
[V:1] G,3A,B,G,C2- | 
[V:2] B4G4 | 
[V:3] E8 | 
[V:4] z4z2E,2 | 
[V:1] C2B,4A,2 | 
[V:2] F2G3FF2 | 
[V:3] z8 | 
[V:4] D,2B,,2C,2D,2 | 
[V:1] B,2E3DCB, | 
[V:2] G3EE4 | 
[V:3] B6A2 | 
[V:4] G,,2G,3F,E,D, | 
[V:1] C2B,4A,2 | 
[V:2] z8 | 
[V:3] G2F2E4 | 
[V:4] E,2D,B,,C,4 | 
[V:1] B,8 | 
[V:2] z2B2B2B2 | 
[V:3] D8- | 
[V:4] B,,8- | 
[V:1] z2B2B2B2 | 
[V:2] d8 | 
[V:3] D8- | 
[V:4] B,,8 | 
[V:1] d6c2 | 
[V:2] d8- | 
[V:3] D8 | 
[V:4] z2B,,2B,,2B,,2 | 
[V:1] B4A4 | 
[V:2] d8 | 
[V:3] F6E2 | 
[V:4] D,8 | 
[V:1] G8 | 
[V:2] B4e4- | 
[V:3] E8- | 
[V:4] E,4C,4- | 
[V:1] c8 | 
[V:2] e4e4- | 
[V:3] E8 | 
[V:4] C,2A,,2A,,4- | 
[V:1] B4B4- | 
[V:2] e2d2B4 | 
[V:3] E8- | 
[V:4] A,,4G,,4 | 
[V:1] B4A4 | 
[V:2] c8 | 
[V:3] E8- | 
[V:4] A,,8 | 
[V:1] B8 |]  
[V:2] B8 |]  
[V:3] E8 |]  
[V:4] E,,8 & E,8 |]  



